X: 1028
T: Wild Rose of the Mountain
B: jims roots
M:C|
L:1/8
R: reel
Q: 1/4=100
K:Amix
V:1 
(3ef^g | "A"abaf "G"gagf | "A"efed cd (3ef^g | abaf "G"gagf |[M:2/4]"A"edc2 |[M:C|] e8- |
 e6 (3ef^g- | "A"abaf "G"gagf | "A"efed (3cdc A2 | EFAB "E"cdcB |[M:2/4] "A"A^G3 |[M:C|] A4- | A6 :|
|:"A"A,B,CE A2AB | cdef "G"gagf | "A"efed "E"cdcA |[M:2/4]"A"cAB2 |[M:C|] E8- | E6 z2|
  "A"A,B,CE A2AB | cdef "G"gagf | "A"efed "E"cdcA |[M:2/4]"A"BA^G2 |[M:C|] A8- | A6 z2 :|
% abcbook-tune_id 6298c29749873ea2d65fa3d7


% abcbook-boost 0
% abcbook-tablature 
% abcbook-transpose 
% abcbook-lastupdated 1654178456957
% abcbook-soundfonts 
% abcbook-repeats 1


